X:171
T:British Grenadiers. RH.171
R:March
S:Rev.R.Harrison’s MS,c1815,Cumbria
N:March = military air.
O:England
A:Temple Sowerby,Cumbria
Z:vmp.Simon Wilson. Review PJH, 2008.
M:2/4
L:1/8
Q:1/4=80
K:C
G/A/4B/4|cG cd|e2d/f/e/g/|\
fA d>c|c/B/A/B/ G/A/B/G/|!
cG cd|ef/e/ de|fA e/d/c/B/|c3:|!
|:A|G>A GF|EF GG|\
AA f/e/d/c/|cd/c/ BG|!
(cB/)c/ dc/d/|ed/e/ fe/f/|\
gc e/d/c/B/|c>e d/c/B/A/|!
G>A G>F|E>F GG|AA f/e/d/c/|cd/c/ BG|!
cB/c/ dc/d/|ed/e/ fe/f/|\
“missing in MS”fA e/d/c/B/|c3:|

